X: 1411
T:Lord Seaforth
R:strathspey
B:RSCDS __-__
Z:1997 by John Chambers <jc@trillian.mit.edu>
M:C
L:1/8
K:G
B \
| "G"G<D D>E "Em"G>A B<G | "Am"{d}c>A "G"B>G "C"~E2 "D"E>A \
| "G"G<D D>E "Em"G>A B>e | "D7"d<B A>B "G"G2- G |
B \
| "G"G<D D>E "Em"G>A B<G | "Am"{d}c>A "G"B>G "C"~E2 "D"E>A \
| "G"G<D D>E "Em"G>A B>e | "D7"d<B A>B "G"G2- G |
g \
| "C"e/f/g "G"d>g B>g d<B | "Am"{d}c>A "G"B>G "C"~E2 E>g \
| "C"e/f/g "G"d>g B>g d<B | "Am"c>A "D7"d>B "G"G2- G ||
g \
| "C"e<g "G"d<b "Am"c<a "G"B<g | "Am"{d}c>A "G"B>G "C"~E2 "D7"E>A \
| "G"G<D D>E "Em"G>A B<e | "D7"d<B A>B "G"G2- G |]
